X:1
T:Peacock Rag
C:Arthur Smith
L:1/8
M:C|
I:linebreak $
K:D
V:1 treble
V:1
 F2 G2 ^G2 |"D" A2 f2- fafd |"D7" A2 d2 c2 c2 |"G" B2 g3 f g2 |"E" B8 |"A7" c2 c3 =c ^c2 |$
 f3 a fd e2 |1"D"  dBAG FD E2 | D2 :|2"D" dBAG FABc | d2 |: f2 g2 a2 |"B" b8 |$
 "*"  f8 | "E *" ^g8 | e4 ^d2 =d2 |"A7" c2 a4 ^g2 |  =g3 a fd e2 |"D" dBAG FABc | d2 :|
%%wordsfont Helvetica-Oblique 10
W: * = make weird peacock sounds